public/svg/feature_icon_3.svg

<svg width="32" height="32" viewBox="0 0 32 32" fill="none" xmlns="http://www.w3.org/2000/svg">
<path d="M26 8.00001V2.49068C25.9965 2.09341 25.8359 1.71368 25.5534 1.43439C25.2708 1.1551 24.8893 0.998938 24.492 1.00001H2.5C2.10474 0.998587 1.725 1.15379 1.44389 1.43165C1.16278 1.70952 1.00317 2.08742 1 2.48268V20.508C1.00352 20.9054 1.16403 21.2853 1.44653 21.5648C1.72904 21.8443 2.1106 22.0007 2.508 22H5" stroke="#1B2738" stroke-width="2" stroke-linecap="round" stroke-linejoin="round"/>
<path d="M1 6H26" stroke="#1B2738" stroke-width="2" stroke-linecap="round" stroke-linejoin="round"/>
<path d="M30.848 31L30.9813 29.5027C31.0693 28.5343 30.8015 27.567 30.228 26.7817C29.6545 25.9964 28.8145 25.4469 27.8653 25.236L22.9973 24.1547V16.5C22.9509 15.8372 22.6588 15.2156 22.1782 14.7568C21.6975 14.2981 21.0629 14.0353 20.3986 14.02C20.0775 14.0229 19.7602 14.0897 19.4651 14.2163C19.17 14.343 18.903 14.527 18.6797 14.7578C18.4563 14.9886 18.2811 15.2614 18.1642 15.5605C18.0473 15.8596 17.991 16.179 17.9986 16.5V28.7667L16.0293 27.2894C15.6357 26.9954 15.1494 26.8531 14.6595 26.8883C14.1695 26.9236 13.7086 27.1341 13.3612 27.4814C13.0138 27.8286 12.803 28.2894 12.7676 28.7794C12.7321 29.2693 12.8742 29.7556 13.168 30.1494L13.8013 30.9934" stroke="#1B2738" stroke-width="2" stroke-linecap="round" stroke-linejoin="round"/>
<path d="M7.53323 18.4587C7.82176 18.8382 8.19765 19.1425 8.62895 19.3456C9.06025 19.5487 9.53422 19.6447 10.0106 19.6254C11.5292 19.6254 12.7612 18.7014 12.7612 17.5627C12.7612 16.4241 11.5292 15.5001 10.0106 15.5001C8.4919 15.5001 7.26123 14.5761 7.26123 13.4361C7.26123 12.2961 8.4919 11.3734 10.0106 11.3734C10.4863 11.3537 10.9598 11.4488 11.391 11.6507C11.8222 11.8526 12.1984 12.1554 12.4879 12.5334" stroke="#1B2738" stroke-width="2" stroke-linecap="round" stroke-linejoin="round"/>
<path d="M10.0107 19.6252V20.9999" stroke="#1B2738" stroke-width="2" stroke-linecap="round" stroke-linejoin="round"/>
<path d="M10.0107 10V11.3733" stroke="#1B2738" stroke-width="2" stroke-linecap="round" stroke-linejoin="round"/>
</svg>

<svg xmlns="http://www.w3.org/2000/svg" width="32" height="32" fill="none"  stroke="#1b2738" stroke-width="2" stroke-linecap="round" stroke-linejoin="round" xmlns:v="https://vecta.io/nano"><path d="M26 8V2.491a1.5 1.5 0 0 0-.447-1.056c-.283-.279-.664-.436-1.061-.435H2.5c-.395-.001-.775.154-1.056.432S1.003 2.087 1 2.483v18.025a1.51 1.51 0 0 0 .447 1.057A1.5 1.5 0 0 0 2.508 22H5M1 6h25m4.848 25l.133-1.497a4 4 0 0 0-3.116-4.267l-4.868-1.081V16.5a2.67 2.67 0 0 0-.819-1.743c-.481-.459-1.115-.722-1.78-.737-.321.003-.638.07-.933.196a2.42 2.42 0 0 0-1.3 1.344 2.43 2.43 0 0 0-.166.94v12.267L16.03 27.29c-.394-.294-.88-.436-1.37-.401a2.04 2.04 0 0 0-1.298.593 2.05 2.05 0 0 0-.594 1.298c-.036.49.107.976.4 1.37l.633.844M7.533 18.459a2.96 2.96 0 0 0 2.477 1.167c1.519 0 2.751-.924 2.751-2.063s-1.232-2.063-2.75-2.063-2.749-.924-2.749-2.064 1.231-2.063 2.749-2.063a2.96 2.96 0 0 1 1.38.277c.431.202.807.505 1.097.883"/><path d="M10.011 19.625V21m0-11v1.373"/></svg>
